X: 897
T: Ali Bobo
R: strathspey
M: 4/4
K: Amajor
|:c>B A>B c<e f2|e>c A<c B2 A>B|c>B A>B c<e f2|1 e>c B>c A2 A>B:|2 e>c B>c A2 A2||
a>e c<A f2 a>f|e>c A<c B2 c>e|a>e c<A f2 a>f|e>c A<c A2 c>e|
a>e c<A f2 a>f|e>c A<c B2 A>B|c>B A>B c<e f2|e>c B>c A2 A>B||


